bernoullicharts/1_3_x__bits.svg

<?xml version="1.0" encoding="utf-8" standalone="no"?>
<!DOCTYPE svg PUBLIC "-//W3C//DTD SVG 1.1//EN"
  "http://www.w3.org/Graphics/SVG/1.1/DTD/svg11.dtd">
<!-- Created with matplotlib (https://matplotlib.org/) -->
<svg height="345.6pt" version="1.1" viewBox="0 0 460.8 345.6" width="460.8pt" xmlns="http://www.w3.org/2000/svg" xmlns:xlink="http://www.w3.org/1999/xlink">
 <defs>
  <style type="text/css">
*{stroke-linecap:butt;stroke-linejoin:round;}
  </style>
 </defs>
 <g id="figure_1">
  <g id="patch_1">
   <path d="M 0 345.6 
L 460.8 345.6 
L 460.8 0 
L 0 0 
z
" style="fill:#ffffff;"/>
  </g>
  <g id="axes_1">
   <g id="patch_2">
    <path d="M 57.6 307.584 
L 414.72 307.584 
L 414.72 41.472 
L 57.6 41.472 
z
" style="fill:#ffffff;"/>
   </g>
   <g id="matplotlib.axis_1">
    <g id="xtick_1">
     <g id="line2d_1">
      <defs>
       <path d="M 0 0 
L 0 3.5 
" id="m3d105e812b" style="stroke:#000000;stroke-width:0.8;"/>
      </defs>
      <g>
       <use style="stroke:#000000;stroke-width:0.8;" x="73.800255" xlink:href="#m3d105e812b" y="307.584"/>
      </g>
     </g>
     <g id="text_1">
      <text style="font-family:DejaVu Sans;font-size:10px;font-style:normal;font-weight:normal;text-anchor:middle;" transform="rotate(-0, 73.800255, 322.182437)" x="73.800255" y="322.182437">0.0</text>
     </g>
    </g>
    <g id="xtick_2">
     <g id="line2d_2">
      <g>
       <use style="stroke:#000000;stroke-width:0.8;" x="138.744153" xlink:href="#m3d105e812b" y="307.584"/>
      </g>
     </g>
     <g id="text_2">
      <text style="font-family:DejaVu Sans;font-size:10px;font-style:normal;font-weight:normal;text-anchor:middle;" transform="rotate(-0, 138.744153, 322.182437)" x="138.744153" y="322.182437">0.2</text>
     </g>
    </g>
    <g id="xtick_3">
     <g id="line2d_3">
      <g>
       <use style="stroke:#000000;stroke-width:0.8;" x="203.688051" xlink:href="#m3d105e812b" y="307.584"/>
      </g>
     </g>
     <g id="text_3">
      <text style="font-family:DejaVu Sans;font-size:10px;font-style:normal;font-weight:normal;text-anchor:middle;" transform="rotate(-0, 203.688051, 322.182437)" x="203.688051" y="322.182437">0.4</text>
     </g>
    </g>
    <g id="xtick_4">
     <g id="line2d_4">
      <g>
       <use style="stroke:#000000;stroke-width:0.8;" x="268.631949" xlink:href="#m3d105e812b" y="307.584"/>
      </g>
     </g>
     <g id="text_4">
      <text style="font-family:DejaVu Sans;font-size:10px;font-style:normal;font-weight:normal;text-anchor:middle;" transform="rotate(-0, 268.631949, 322.182437)" x="268.631949" y="322.182437">0.6</text>
     </g>
    </g>
    <g id="xtick_5">
     <g id="line2d_5">
      <g>
       <use style="stroke:#000000;stroke-width:0.8;" x="333.575847" xlink:href="#m3d105e812b" y="307.584"/>
      </g>
     </g>
     <g id="text_5">
      <text style="font-family:DejaVu Sans;font-size:10px;font-style:normal;font-weight:normal;text-anchor:middle;" transform="rotate(-0, 333.575847, 322.182437)" x="333.575847" y="322.182437">0.8</text>
     </g>
    </g>
    <g id="xtick_6">
     <g id="line2d_6">
      <g>
       <use style="stroke:#000000;stroke-width:0.8;" x="398.519745" xlink:href="#m3d105e812b" y="307.584"/>
      </g>
     </g>
     <g id="text_6">
      <text style="font-family:DejaVu Sans;font-size:10px;font-style:normal;font-weight:normal;text-anchor:middle;" transform="rotate(-0, 398.519745, 322.182437)" x="398.519745" y="322.182437">1.0</text>
     </g>
    </g>
    <g id="text_7">
     <text style="font-family:DejaVu Sans;font-size:10px;font-style:normal;font-weight:normal;text-anchor:middle;" transform="rotate(-0, 236.16, 335.860562)" x="236.16" y="335.860562">Probability</text>
    </g>
   </g>
   <g id="matplotlib.axis_2">
    <g id="ytick_1">
     <g id="line2d_7">
      <defs>
       <path d="M 0 0 
L -3.5 0 
" id="mf37af76cd5" style="stroke:#000000;stroke-width:0.8;"/>
      </defs>
      <g>
       <use style="stroke:#000000;stroke-width:0.8;" x="57.6" xlink:href="#mf37af76cd5" y="281.201386"/>
      </g>
     </g>
     <g id="text_8">
      <text style="font-family:DejaVu Sans;font-size:10px;font-style:normal;font-weight:normal;text-anchor:end;" transform="rotate(-0, 50.6, 285.000605)" x="50.6" y="285.000605">3.4</text>
     </g>
    </g>
    <g id="ytick_2">
     <g id="line2d_8">
      <g>
       <use style="stroke:#000000;stroke-width:0.8;" x="57.6" xlink:href="#mf37af76cd5" y="249.453354"/>
      </g>
     </g>
     <g id="text_9">
      <text style="font-family:DejaVu Sans;font-size:10px;font-style:normal;font-weight:normal;text-anchor:end;" transform="rotate(-0, 50.6, 253.252573)" x="50.6" y="253.252573">3.6</text>
     </g>
    </g>
    <g id="ytick_3">
     <g id="line2d_9">
      <g>
       <use style="stroke:#000000;stroke-width:0.8;" x="57.6" xlink:href="#mf37af76cd5" y="217.705323"/>
      </g>
     </g>
     <g id="text_10">
      <text style="font-family:DejaVu Sans;font-size:10px;font-style:normal;font-weight:normal;text-anchor:end;" transform="rotate(-0, 50.6, 221.504542)" x="50.6" y="221.504542">3.8</text>
     </g>
    </g>
    <g id="ytick_4">
     <g id="line2d_10">
      <g>
       <use style="stroke:#000000;stroke-width:0.8;" x="57.6" xlink:href="#mf37af76cd5" y="185.957291"/>
      </g>
     </g>
     <g id="text_11">
      <text style="font-family:DejaVu Sans;font-size:10px;font-style:normal;font-weight:normal;text-anchor:end;" transform="rotate(-0, 50.6, 189.75651)" x="50.6" y="189.75651">4.0</text>
     </g>
    </g>
    <g id="ytick_5">
     <g id="line2d_11">
      <g>
       <use style="stroke:#000000;stroke-width:0.8;" x="57.6" xlink:href="#mf37af76cd5" y="154.20926"/>
      </g>
     </g>
     <g id="text_12">
      <text style="font-family:DejaVu Sans;font-size:10px;font-style:normal;font-weight:normal;text-anchor:end;" transform="rotate(-0, 50.6, 158.008479)" x="50.6" y="158.008479">4.2</text>
     </g>
    </g>
    <g id="ytick_6">
     <g id="line2d_12">
      <g>
       <use style="stroke:#000000;stroke-width:0.8;" x="57.6" xlink:href="#mf37af76cd5" y="122.461228"/>
      </g>
     </g>
     <g id="text_13">
      <text style="font-family:DejaVu Sans;font-size:10px;font-style:normal;font-weight:normal;text-anchor:end;" transform="rotate(-0, 50.6, 126.260447)" x="50.6" y="126.260447">4.4</text>
     </g>
    </g>
    <g id="ytick_7">
     <g id="line2d_13">
      <g>
       <use style="stroke:#000000;stroke-width:0.8;" x="57.6" xlink:href="#mf37af76cd5" y="90.713197"/>
      </g>
     </g>
     <g id="text_14">
      <text style="font-family:DejaVu Sans;font-size:10px;font-style:normal;font-weight:normal;text-anchor:end;" transform="rotate(-0, 50.6, 94.512416)" x="50.6" y="94.512416">4.6</text>
     </g>
    </g>
    <g id="ytick_8">
     <g id="line2d_14">
      <g>
       <use style="stroke:#000000;stroke-width:0.8;" x="57.6" xlink:href="#mf37af76cd5" y="58.965165"/>
      </g>
     </g>
     <g id="text_15">
      <text style="font-family:DejaVu Sans;font-size:10px;font-style:normal;font-weight:normal;text-anchor:end;" transform="rotate(-0, 50.6, 62.764384)" x="50.6" y="62.764384">4.8</text>
     </g>
    </g>
    <g id="text_16">
     <text style="font-family:DejaVu Sans;font-size:10px;font-style:normal;font-weight:normal;text-anchor:middle;" transform="rotate(-90, 28.617187, 174.528)" x="28.617187" y="174.528">Average Bits Consumed Per Call</text>
    </g>
   </g>
   <g id="line2d_15">
    <path clip-path="url(#p5ffb9da95d)" d="M 73.832727 109.762016 
L 77.112066 69.759496 
L 80.391405 100.555087 
L 83.670744 75.156661 
L 86.950083 53.568 
L 90.229421 74.20422 
L 93.50876 81.823748 
L 96.788099 91.030677 
L 100.067438 92.300598 
L 103.346777 98.967685 
L 106.626116 125.001071 
L 109.905455 110.079496 
L 113.184793 119.286425 
L 116.464132 142.145008 
L 119.743471 99.920126 
L 123.02281 151.351937 
L 126.302149 125.001071 
L 129.581488 143.414929 
L 132.860826 126.588472 
L 136.140165 102.777449 
L 139.419504 91.983118 
L 142.698843 161.193827 
L 145.978182 100.872567 
L 149.257521 146.272252 
L 152.53686 185.639811 
L 155.816198 137.700283 
L 159.095537 166.908472 
L 162.374876 115.794142 
L 165.654215 141.510047 
L 168.933554 145.002331 
L 172.212893 152.939339 
L 175.492231 177.385323 
L 178.77157 153.256819 
L 182.050909 152.939339 
L 185.330248 176.432882 
L 188.609587 140.875087 
L 191.888926 170.718236 
L 195.168264 185.00485 
L 198.447603 145.637291 
L 201.726942 192.306898 
L 205.006281 153.256819 
L 208.28562 155.161701 
L 211.564959 206.593512 
L 214.844298 199.608945 
L 218.123636 178.337764 
L 221.402975 186.274772 
L 224.682314 168.495874 
L 227.961653 176.750362 
L 231.240992 182.147528 
L 234.520331 181.195087 
L 237.799669 181.195087 
L 241.079008 169.765795 
L 244.358347 165.956031 
L 247.637686 223.737449 
L 250.917025 176.750362 
L 254.196364 186.592252 
L 257.475702 202.148787 
L 260.755041 176.115402 
L 264.03438 203.101228 
L 267.313719 198.973984 
L 270.593058 202.466268 
L 273.872397 200.561386 
L 277.151736 216.752882 
L 280.431074 212.308157 
L 283.710413 223.102488 
L 286.989752 227.864693 
L 290.269091 228.499654 
L 293.54843 234.84926 
L 296.827769 247.230992 
L 300.107107 204.68863 
L 303.386446 202.783748 
L 306.665785 193.576819 
L 309.945124 245.643591 
L 313.224463 216.435402 
L 316.503802 222.150047 
L 319.78314 221.515087 
L 323.062479 242.151307 
L 326.341818 258.025323 
L 329.621157 256.755402 
L 332.900496 244.056189 
L 336.179835 236.754142 
L 339.459174 233.261858 
L 342.738512 248.818394 
L 346.017851 242.786268 
L 349.29719 262.787528 
L 352.576529 218.022803 
L 355.855868 255.168 
L 359.135207 268.184693 
L 362.414545 238.659024 
L 365.693884 268.502173 
L 368.973223 263.422488 
L 372.252562 241.198866 
L 375.531901 240.881386 
L 378.81124 223.419969 
L 382.090579 267.867213 
L 385.369917 254.533039 
L 388.649256 271.042016 
L 391.928595 264.057449 
L 395.207934 295.488 
L 398.487273 253.898079 
" style="fill:none;stroke:#1f77b4;stroke-linecap:square;stroke-width:1.5;"/>
   </g>
   <g id="patch_3">
    <path d="M 57.6 307.584 
L 57.6 41.472 
" style="fill:none;stroke:#000000;stroke-linecap:square;stroke-linejoin:miter;stroke-width:0.8;"/>
   </g>
   <g id="patch_4">
    <path d="M 414.72 307.584 
L 414.72 41.472 
" style="fill:none;stroke:#000000;stroke-linecap:square;stroke-linejoin:miter;stroke-width:0.8;"/>
   </g>
   <g id="patch_5">
    <path d="M 57.6 307.584 
L 414.72 307.584 
" style="fill:none;stroke:#000000;stroke-linecap:square;stroke-linejoin:miter;stroke-width:0.8;"/>
   </g>
   <g id="patch_6">
    <path d="M 57.6 41.472 
L 414.72 41.472 
" style="fill:none;stroke:#000000;stroke-linecap:square;stroke-linejoin:miter;stroke-width:0.8;"/>
   </g>
   <g id="text_17">
    <text style="font-family:DejaVu Sans;font-size:12px;font-style:normal;font-weight:normal;text-anchor:middle;" transform="rotate(-0, 236.16, 35.472)" x="236.16" y="35.472">Avg. Bits Consumed by 1/(3+x) Algorithm</text>
   </g>
   <g id="legend_1">
    <g id="patch_7">
     <path d="M 337.524688 64.150125 
L 407.72 64.150125 
Q 409.72 64.150125 409.72 62.150125 
L 409.72 48.472 
Q 409.72 46.472 407.72 46.472 
L 337.524688 46.472 
Q 335.524688 46.472 335.524688 48.472 
L 335.524688 62.150125 
Q 335.524688 64.150125 337.524688 64.150125 
z
" style="fill:#ffffff;opacity:0.8;stroke:#cccccc;stroke-linejoin:miter;"/>
    </g>
    <g id="line2d_16">
     <path d="M 339.524688 54.570438 
L 359.524688 54.570438 
" style="fill:none;stroke:#1f77b4;stroke-linecap:square;stroke-width:1.5;"/>
    </g>
    <g id="line2d_17"/>
    <g id="text_18">
     <text style="font-family:DejaVu Sans;font-size:10px;font-style:normal;font-weight:normal;text-anchor:start;" transform="rotate(-0, 367.524688, 58.070438)" x="367.524688" y="58.070438">1/(3+x)</text>
    </g>
   </g>
  </g>
 </g>
 <defs>
  <clipPath id="p5ffb9da95d">
   <rect height="266.112" width="357.12" x="57.6" y="41.472"/>
  </clipPath>
 </defs>
</svg>

<svg height="460.8" viewBox="0 0 460.8 345.6" width="614.4" xmlns="http://www.w3.org/2000/svg" xmlns:xlink="http://www.w3.org/1999/xlink"><defs><style>*{stroke-linecap:butt;stroke-linejoin:round}</style></defs><g id="figure_1"><path d="M0 345.6h460.8V0H0z" fill="#fff" id="patch_1"/><g id="axes_1"><path d="M57.6 307.584h357.12V41.472H57.6z" fill="#fff" id="patch_2"/><g id="matplotlib.axis_1"><g id="xtick_1"><g id="line2d_1"><defs><path d="M0 0v3.5" id="m3d105e812b" stroke="#000" stroke-width=".8"/></defs><use x="73.8" xlink:href="#m3d105e812b" y="307.584" stroke="#000" stroke-width=".8"/></g><text x="73.8" y="322.182" font-family="DejaVu Sans" font-size="10" font-weight="400" text-anchor="middle" id="text_1">0.0</text></g><g id="xtick_2"><use x="138.744" xlink:href="#m3d105e812b" y="307.584" stroke="#000" stroke-width=".8" id="line2d_2"/><text x="138.744" y="322.182" font-family="DejaVu Sans" font-size="10" font-weight="400" text-anchor="middle" id="text_2">0.2</text></g><g id="xtick_3"><use x="203.688" xlink:href="#m3d105e812b" y="307.584" stroke="#000" stroke-width=".8" id="line2d_3"/><text x="203.688" y="322.182" font-family="DejaVu Sans" font-size="10" font-weight="400" text-anchor="middle" id="text_3">0.4</text></g><g id="xtick_4"><use x="268.632" xlink:href="#m3d105e812b" y="307.584" stroke="#000" stroke-width=".8" id="line2d_4"/><text x="268.632" y="322.182" font-family="DejaVu Sans" font-size="10" font-weight="400" text-anchor="middle" id="text_4">0.6</text></g><g id="xtick_5"><use x="333.576" xlink:href="#m3d105e812b" y="307.584" stroke="#000" stroke-width=".8" id="line2d_5"/><text x="333.576" y="322.182" font-family="DejaVu Sans" font-size="10" font-weight="400" text-anchor="middle" id="text_5">0.8</text></g><g id="xtick_6"><use x="398.52" xlink:href="#m3d105e812b" y="307.584" stroke="#000" stroke-width=".8" id="line2d_6"/><text x="398.52" y="322.182" font-family="DejaVu Sans" font-size="10" font-weight="400" text-anchor="middle" id="text_6">1.0</text></g><text x="236.16" y="335.861" font-family="DejaVu Sans" font-size="10" font-weight="400" text-anchor="middle" id="text_7">Probability</text></g><g id="matplotlib.axis_2"><g id="ytick_1"><g id="line2d_7"><defs><path d="M0 0h-3.5" id="mf37af76cd5" stroke="#000" stroke-width=".8"/></defs><use x="57.6" xlink:href="#mf37af76cd5" y="281.201" stroke="#000" stroke-width=".8"/></g><text x="50.6" y="285.001" font-family="DejaVu Sans" font-size="10" font-weight="400" text-anchor="end" id="text_8">3.4</text></g><g id="ytick_2"><use x="57.6" xlink:href="#mf37af76cd5" y="249.453" stroke="#000" stroke-width=".8" id="line2d_8"/><text x="50.6" y="253.253" font-family="DejaVu Sans" font-size="10" font-weight="400" text-anchor="end" id="text_9">3.6</text></g><g id="ytick_3"><use x="57.6" xlink:href="#mf37af76cd5" y="217.705" stroke="#000" stroke-width=".8" id="line2d_9"/><text x="50.6" y="221.505" font-family="DejaVu Sans" font-size="10" font-weight="400" text-anchor="end" id="text_10">3.8</text></g><g id="ytick_4"><use x="57.6" xlink:href="#mf37af76cd5" y="185.957" stroke="#000" stroke-width=".8" id="line2d_10"/><text x="50.6" y="189.757" font-family="DejaVu Sans" font-size="10" font-weight="400" text-anchor="end" id="text_11">4.0</text></g><g id="ytick_5"><use x="57.6" xlink:href="#mf37af76cd5" y="154.209" stroke="#000" stroke-width=".8" id="line2d_11"/><text x="50.6" y="158.008" font-family="DejaVu Sans" font-size="10" font-weight="400" text-anchor="end" id="text_12">4.2</text></g><g id="ytick_6"><use x="57.6" xlink:href="#mf37af76cd5" y="122.461" stroke="#000" stroke-width=".8" id="line2d_12"/><text x="50.6" y="126.26" font-family="DejaVu Sans" font-size="10" font-weight="400" text-anchor="end" id="text_13">4.4</text></g><g id="ytick_7"><use x="57.6" xlink:href="#mf37af76cd5" y="90.713" stroke="#000" stroke-width=".8" id="line2d_13"/><text x="50.6" y="94.512" font-family="DejaVu Sans" font-size="10" font-weight="400" text-anchor="end" id="text_14">4.6</text></g><g id="ytick_8"><use x="57.6" xlink:href="#mf37af76cd5" y="58.965" stroke="#000" stroke-width=".8" id="line2d_14"/><text x="50.6" y="62.764" font-family="DejaVu Sans" font-size="10" font-weight="400" text-anchor="end" id="text_15">4.8</text></g><text transform="rotate(-90 28.617 174.528)" x="28.617" y="174.528" font-family="DejaVu Sans" font-size="10" font-weight="400" text-anchor="middle" id="text_16">Average Bits Consumed Per Call</text></g><path clip-path="url(#p5ffb9da95d)" d="M73.833 109.762l3.28-40.003 3.278 30.796 3.28-25.398 3.28-21.589 3.278 20.636 3.28 7.62 3.28 9.207 3.278 1.27 3.28 6.667 3.28 26.033 3.278-14.922 3.28 9.207 3.28 22.859 3.278-42.225 3.28 51.432 3.28-26.35 3.278 18.413 3.28-16.827 3.28-23.81 3.279-10.795 3.279 69.21 3.28-60.32 3.279 45.4 3.279 39.367 3.28-47.94 3.279 29.208 3.279-51.114 3.28 25.716 3.279 3.492 3.279 7.937 3.28 24.446 3.279-24.128 3.279-.318 3.28 23.494 3.279-35.558 3.279 29.843 3.28 14.287 3.279-39.368 3.279 46.67 3.28-39.05 3.279 1.905 3.279 51.432 3.28-6.985 3.279-21.271 3.279 7.937 3.28-17.78 3.279 8.255 3.279 5.398 3.28-.953h3.279l3.279-11.43 3.28-3.809 3.279 57.781 3.279-46.987 3.28 9.842 3.279 15.557 3.279-26.034 3.28 26.986 3.279-4.127 3.28 3.492 3.278-1.905 3.28 16.192 3.28-4.445 3.278 10.794 3.28 4.763 3.28.635 3.278 6.35 3.28 12.381 3.28-42.542 3.278-1.905 3.28-9.207 3.28 52.067 3.278-29.209 3.28 5.715 3.28-.635 3.278 20.636 3.28 15.874 3.28-1.27 3.278-12.699 3.28-7.302 3.28-3.492 3.279 15.556 3.279-6.032 3.28 20.002 3.279-44.765 3.279 37.145 3.28 13.017 3.279-29.526 3.279 29.843 3.28-5.08 3.279-22.223 3.279-.318 3.28-17.461 3.279 44.447 3.279-13.334 3.28 16.509 3.279-6.985 3.279 31.431 3.28-41.59" fill="none" stroke="#1f77b4" stroke-linecap="square" stroke-width="1.5" id="line2d_15"/><path d="M57.6 307.584V41.472" fill="none" stroke="#000" stroke-linecap="square" stroke-width=".8" id="patch_3"/><path d="M414.72 307.584V41.472" fill="none" stroke="#000" stroke-linecap="square" stroke-width=".8" id="patch_4"/><path d="M57.6 307.584h357.12" fill="none" stroke="#000" stroke-linecap="square" stroke-width=".8" id="patch_5"/><path d="M57.6 41.472h357.12" fill="none" stroke="#000" stroke-linecap="square" stroke-width=".8" id="patch_6"/><text x="236.16" y="35.472" font-family="DejaVu Sans" font-size="12" font-weight="400" text-anchor="middle" id="text_17">Avg. Bits Consumed by 1/(3+x) Algorithm</text><g id="legend_1"><path d="M337.525 64.15h70.195q2 0 2-2V48.472q0-2-2-2h-70.195q-2 0-2 2V62.15q0 2 2 2z" fill="#fff" opacity=".8" stroke="#ccc" id="patch_7"/><path d="M339.525 54.57h20" fill="none" stroke="#1f77b4" stroke-linecap="square" stroke-width="1.5" id="line2d_16"/><text x="367.525" y="58.07" font-family="DejaVu Sans" font-size="10" font-weight="400" id="text_18">1/(3+x)</text></g></g></g><defs><clipPath id="p5ffb9da95d"><path d="M57.6 41.472h357.12v266.112H57.6z"/></clipPath></defs></svg>
